X:337
T:Errico. RH.337
T:Enrico,aka. RH.337
R:.hornpipe
S:Rev.R.Harrison’s MS,c1815,Cumbria
N:Might just be bad handwriting. SW.
O:England
A:Temple Sowerby,Cumbria
Z:vmp.Simon Wilson. Review PJH, 2008.
M:2/4
L:1/16
Q:1/4=90
K:D
” cr”d2fe dcdB|A2A2 F2F2|d2f2 defd|e4 a4|\
d2fe dcdB|A2A2 F2F2|d2g2 fdec|d6 d2:|!
|:a2a2 f2f2|d2de fdef|g2gf e2ed|c2ec A4|\
A2d2 cecA|A2d2 cecA|A2d2 cecA|d6 d2:|

